images/back_quiz.svg

<svg xmlns="http://www.w3.org/2000/svg" xmlns:xlink="http://www.w3.org/1999/xlink" viewBox="0 0 24 24"><path d="M9.929,12l3.821-3.821c0.414-0.414,0.414-1.086,0-1.5l0,0c-0.414-0.414-1.086-0.414-1.5,0l-4.614,4.614 c-0.391,0.391-0.391,1.024,0,1.414l4.614,4.614c0.414,0.414,1.086,0.414,1.5,0h0c0.414-0.414,0.414-1.086,0-1.5L9.929,12z"/></svg>

<?xml version="1.0" encoding="UTF-8" standalone="no"?>
<!DOCTYPE svg PUBLIC "-//W3C//DTD SVG 1.1//EN" "http://www.w3.org/Graphics/SVG/1.1/DTD/svg11.dtd">
<svg width="100%" height="100%" viewBox="0 0 7 12" version="1.1" xmlns="http://www.w3.org/2000/svg" xmlns:xlink="http://www.w3.org/1999/xlink" xml:space="preserve" xmlns:serif="http://www.serif.com/" style="fill-rule:evenodd;clip-rule:evenodd;stroke-linejoin:round;stroke-miterlimit:2;">
    <g transform="matrix(1,0,0,1,-7.20163,-6)">
        <path d="M9.929,12L13.75,8.179C14.164,7.765 14.164,7.093 13.75,6.679C13.336,6.265 12.664,6.265 12.25,6.679L7.636,11.293C7.245,11.684 7.245,12.317 7.636,12.707L12.25,17.321C12.664,17.735 13.336,17.735 13.75,17.321C14.164,16.907 14.164,16.235 13.75,15.821L9.929,12Z" style="fill-rule:nonzero;"/>
    </g>
</svg>
